img/svg/small-calendar.svg

<svg width="34" height="34" viewBox="0 0 34 34" fill="none" xmlns="http://www.w3.org/2000/svg">
<path d="M31.1674 3.1875H26.5625V1.0625C26.5625 0.474938 26.0876 0 25.5 0C24.9124 0 24.4375 0.474938 24.4375 1.0625V3.1875H18.0625V1.0625C18.0625 0.474938 17.5865 0 17 0C16.4135 0 15.9375 0.474938 15.9375 1.0625V3.1875H9.5625V1.0625C9.5625 0.474938 9.0865 0 8.5 0C7.9135 0 7.4375 0.474938 7.4375 1.0625V3.1875H2.83369C1.26863 3.1875 0 4.45506 0 6.02012V31.1663C0 32.7314 1.26863 34 2.83369 34H31.1674C32.7324 34 34 32.7314 34 31.1663V6.02012C34 4.45506 32.7324 3.1875 31.1674 3.1875ZM31.875 31.1663C31.875 31.5573 31.5573 31.875 31.1674 31.875H2.83369C2.44269 31.875 2.125 31.5573 2.125 31.1663V6.02012C2.125 5.63019 2.44269 5.3125 2.83369 5.3125H7.4375V7.4375C7.4375 8.02506 7.9135 8.5 8.5 8.5C9.0865 8.5 9.5625 8.02506 9.5625 7.4375V5.3125H15.9375V7.4375C15.9375 8.02506 16.4135 8.5 17 8.5C17.5865 8.5 18.0625 8.02506 18.0625 7.4375V5.3125H24.4375V7.4375C24.4375 8.02506 24.9124 8.5 25.5 8.5C26.0876 8.5 26.5625 8.02506 26.5625 7.4375V5.3125H31.1674C31.5573 5.3125 31.875 5.63019 31.875 6.02012V31.1663Z" fill="#C4C4C4"/>
<path d="M11.6875 12.75H7.4375V15.9375H11.6875V12.75Z" fill="#C4C4C4"/>
<path d="M11.6875 18.0625H7.4375V21.25H11.6875V18.0625Z" fill="#C4C4C4"/>
<path d="M11.6875 23.375H7.4375V26.5625H11.6875V23.375Z" fill="#C4C4C4"/>
<path d="M19.125 23.375H14.875V26.5625H19.125V23.375Z" fill="#C4C4C4"/>
<path d="M19.125 18.0625H14.875V21.25H19.125V18.0625Z" fill="#C4C4C4"/>
<path d="M19.125 12.75H14.875V15.9375H19.125V12.75Z" fill="#C4C4C4"/>
<path d="M26.5625 23.375H22.3125V26.5625H26.5625V23.375Z" fill="#C4C4C4"/>
<path d="M26.5625 18.0625H22.3125V21.25H26.5625V18.0625Z" fill="#C4C4C4"/>
<path d="M26.5625 12.75H22.3125V15.9375H26.5625V12.75Z" fill="#C4C4C4"/>
</svg>

<svg width="34" height="34" viewBox="0 0 34 34" fill="none" xmlns="http://www.w3.org/2000/svg"><path d="M31.167 3.188h-4.605V1.062a1.062 1.062 0 1 0-2.125 0v2.125h-6.375V1.063a1.062 1.062 0 1 0-2.125 0v2.125H9.564V1.062a1.062 1.062 0 1 0-2.126 0v2.125H2.835A2.833 2.833 0 0 0 0 6.02v25.146A2.834 2.834 0 0 0 2.834 34h28.333A2.833 2.833 0 0 0 34 31.166V6.02a2.832 2.832 0 0 0-2.833-2.832zm.708 27.978a.709.709 0 0 1-.708.709H2.834a.71.71 0 0 1-.709-.709V6.02c0-.39.318-.707.709-.707h4.604v2.125a1.062 1.062 0 1 0 2.125 0V5.313h6.374v2.125a1.062 1.062 0 1 0 2.126 0V5.313h6.375v2.125a1.062 1.062 0 1 0 2.125 0V5.313h4.604c.39 0 .708.317.708.707v25.146z" fill="#C4C4C4"/><path d="M11.688 12.75h-4.25v3.188h4.25V12.75zm0 5.313h-4.25v3.187h4.25v-3.188zm0 5.312h-4.25v3.188h4.25v-3.188zm7.437 0h-4.25v3.188h4.25v-3.188zm0-5.312h-4.25v3.187h4.25v-3.188zm0-5.313h-4.25v3.188h4.25V12.75zm7.438 10.625h-4.25v3.188h4.25v-3.188zm0-5.312h-4.25v3.187h4.25v-3.188zm0-5.313h-4.25v3.188h4.25V12.75z" fill="#C4C4C4"/></svg>
